src/sprite-icons/academy.svg

<svg width="44" height="48" viewBox="0 0 44 48" fill="none" xmlns="http://www.w3.org/2000/svg">
<path d="M21.4629 47.9315C20.5727 47.7261 19.751 47.4522 19.2032 46.699C18.8609 46.2197 18.587 45.6034 18.3131 45.0556C18.1761 44.7817 18.1077 44.6448 17.8338 44.5763C16.0535 44.234 14.2731 43.6177 12.6298 42.796C10.0278 41.495 7.76815 39.7147 5.91936 37.4551C5.71394 37.1812 5.50852 37.1812 5.23463 37.2496C3.52279 37.8659 1.674 37.1127 0.783842 35.5378C-0.106315 33.8944 0.236053 31.9087 1.74247 30.8131C2.01637 30.6077 2.08484 30.4023 1.94789 30.0599C0.715368 26.02 0.715368 21.9116 1.94789 17.8716C2.01637 17.5977 2.01637 17.3923 1.74247 17.1869C0.236053 16.0913 -0.174789 14.1056 0.715368 12.4622C1.60553 10.8188 3.45431 10.1341 5.23463 10.7504C5.57699 10.8873 5.71394 10.7504 5.91936 10.5449C7.76815 8.28531 10.0278 6.50499 12.6298 5.20399C14.2047 4.38231 15.9165 3.83452 17.6283 3.49215C18.0392 3.42368 18.3131 3.28673 18.45 2.73894C18.7239 1.09558 20.2988 0 22.0107 0C23.7225 0 25.2289 1.23252 25.5713 2.87589C25.6398 3.28673 25.8452 3.42368 26.1876 3.49215C28.995 4.03994 31.5285 5.13552 33.8566 6.77889C35.4315 7.87447 36.801 9.10699 37.965 10.5449C38.1704 10.8188 38.3759 10.8873 38.7182 10.7504C40.3616 10.1341 42.2789 10.8873 43.169 12.3937C44.0592 14.0371 43.7168 16.0228 42.2789 17.1184C42.005 17.3238 41.9365 17.5292 42.005 17.8716C43.2375 21.9116 43.2375 26.02 42.005 30.0599C41.9365 30.3338 41.9365 30.5392 42.2104 30.7447C43.5798 31.7718 44.0592 33.689 43.3744 35.2639C42.6212 36.9073 40.8409 37.8659 39.1975 37.3866C38.4443 37.1812 38.102 37.3866 37.6226 37.9344C34.6098 41.3581 30.7753 43.5492 26.3245 44.5078C25.9137 44.5763 25.6398 44.7817 25.5713 45.2611C25.1604 46.699 24.2018 47.5207 22.8323 47.9315C22.6954 47.9315 22.6269 48 22.49 48C22.0791 47.9315 21.8052 47.9315 21.4629 47.9315ZM21.9422 13.4893C16.1904 13.4893 11.4657 18.214 11.4657 23.9658C11.4657 29.7175 16.1904 34.4422 21.9422 34.4422C27.694 34.4422 32.4186 29.7175 32.4186 23.9658C32.4186 18.214 27.694 13.4893 21.9422 13.4893ZM18.3816 4.86163C13.6569 5.75178 9.82236 8.07989 6.80952 11.7775C7.6312 12.8046 7.9051 13.9001 7.6312 15.1327C7.6312 15.2696 7.76815 15.4066 7.83662 15.475C8.72678 15.9544 9.61694 16.4337 10.5071 16.913C10.9179 17.1184 11.3288 17.3923 11.7396 17.5977C14.2047 13.9686 17.5599 11.9829 21.9422 11.9829C26.3245 11.9829 29.6112 14.0371 32.0763 17.5977C33.2403 16.9815 34.3359 16.3652 35.4315 15.7489C35.9793 15.475 36.3216 15.2011 36.1847 14.4479C35.9793 13.4208 36.3901 12.5307 37.0749 11.709C34.062 8.01141 30.2275 5.68331 25.5028 4.79315C25.0235 6.2311 24.0649 7.05278 22.6269 7.39515C22.6269 8.42225 22.6269 9.44936 22.6269 10.408C22.1476 10.408 21.6683 10.408 21.1205 10.408C21.1205 9.38089 21.1205 8.35378 21.1205 7.39515C19.8195 7.05278 18.8609 6.2311 18.3816 4.86163ZM6.80952 36.1541C9.89083 39.8516 13.6569 42.1797 18.3816 43.0699C18.8609 41.7004 19.8195 40.8103 21.2575 40.4679C21.2575 39.4408 21.2575 38.4137 21.2575 37.4551C21.8052 37.4551 22.2161 37.4551 22.7639 37.4551C22.7639 38.4822 22.7639 39.5093 22.7639 40.4679C24.2018 40.8103 25.092 41.7004 25.5713 43.0699C30.296 42.1113 34.1305 39.8516 37.1433 36.1541C36.2532 34.7846 36.1847 34.3738 36.3216 32.7989C36.3216 32.6619 36.2532 32.525 36.1847 32.4565C34.8837 31.7033 33.5142 31.0185 32.1448 30.2653C29.6797 33.8944 26.3245 35.8802 21.9422 35.8802C17.5599 35.8802 14.2047 33.826 11.7396 30.2653C10.3701 31.0185 9.06915 31.7033 7.76815 32.4565C7.69968 32.525 7.56273 32.6619 7.6312 32.7989C7.9051 34.0999 7.56273 35.1954 6.80952 36.1541ZM11.0549 28.9643C9.61694 25.6091 9.61694 22.2539 11.0549 18.8987C9.61694 18.1455 8.24747 17.3238 6.80952 16.5706C5.85089 17.5977 4.75531 18.0086 3.38584 17.8716C2.15331 21.9116 2.15331 25.883 3.38584 29.923C4.75531 29.786 5.85089 30.2653 6.80952 31.224C8.24747 30.5392 9.61694 29.786 11.0549 28.9643ZM37.0749 31.2924C37.965 30.4023 38.9921 29.8545 40.2931 29.923C40.3616 29.923 40.567 29.7175 40.6355 29.6491C41.3202 27.4579 41.5941 25.2668 41.4572 22.9387C41.3887 21.2268 41.1148 19.5835 40.4985 17.9401C39.1975 18.077 38.102 17.6662 37.2118 16.776C37.1433 16.7076 36.9379 16.7076 36.801 16.776C36.1847 17.1184 35.5684 17.4608 35.0206 17.7347C34.3359 18.1455 33.5827 18.4879 32.898 18.8987C34.3359 22.2539 34.3359 25.6091 32.898 28.9643C34.2674 29.786 35.6369 30.5392 37.0749 31.2924ZM21.9422 5.9572C23.1747 5.9572 24.2018 4.9301 24.2018 3.76605C24.2018 2.53352 23.2432 1.50642 22.0107 1.50642C20.7781 1.50642 19.751 2.53352 19.751 3.76605C19.6826 4.9301 20.7097 5.9572 21.9422 5.9572ZM6.19326 14.2425C6.19326 13.01 5.16615 11.9829 3.93363 11.9829C2.7011 11.9829 1.674 13.01 1.674 14.2425C1.674 15.475 2.7011 16.4337 3.93363 16.4337C5.23463 16.4337 6.19326 15.4066 6.19326 14.2425ZM42.1419 14.2425C42.1419 13.01 41.1148 11.9829 39.9507 11.9829C38.7182 11.9829 37.6911 12.9415 37.6911 14.174C37.6911 15.4066 38.7182 16.4337 39.9507 16.4337C41.1148 16.5021 42.1419 15.475 42.1419 14.2425ZM6.19326 33.689C6.19326 32.4565 5.16615 31.4294 3.93363 31.4294C2.7011 31.4294 1.674 32.4565 1.674 33.689C1.674 34.9215 2.7011 35.9486 3.93363 35.9486C5.23463 35.9486 6.19326 34.9215 6.19326 33.689ZM42.1419 33.689C42.1419 32.4565 41.1148 31.4294 39.9507 31.4294C38.7182 31.4294 37.6911 32.388 37.6911 33.6205C37.6911 34.8531 38.7182 35.8802 39.9507 35.8802C41.1148 35.9486 42.1419 34.9215 42.1419 33.689ZM21.9422 41.9743C20.7097 41.9743 19.6826 43.0014 19.6826 44.1655C19.6826 45.398 20.7097 46.4251 21.9422 46.4251C23.1747 46.4251 24.2018 45.398 24.2018 44.1655C24.2018 42.933 23.1747 41.9743 21.9422 41.9743Z" fill="white"/>
<path d="M19.545 23.0748C18.1071 21.7738 17.9017 20.1989 18.3125 18.487C18.7233 16.7067 20.5037 15.5427 22.2155 15.6796C24.2012 15.885 25.5022 17.3915 25.6392 19.3772C25.7077 20.7467 25.4338 21.9792 24.2697 23.0063C24.4751 23.1432 24.6806 23.3487 24.886 23.4856C25.9816 24.1703 27.1456 24.8551 28.2412 25.4713C28.5151 25.6083 28.652 25.8137 28.5835 26.1561C28.5835 26.8408 28.5835 27.5255 28.5835 28.1418C28.652 29.032 28.1727 29.6482 27.4195 29.9221C26.6663 30.196 25.8446 30.4014 25.0914 30.4699C22.6263 30.6753 20.0928 30.7438 17.6278 30.333C17.2169 30.2645 16.8061 30.1275 16.3952 29.9906C15.5736 29.6482 15.0942 29.032 15.1627 28.1418C15.1627 27.4571 15.1627 26.7723 15.1627 26.0876C15.1627 25.8137 15.2312 25.6768 15.4366 25.5398C16.6007 24.8551 17.6962 24.1703 18.8603 23.4856C19.1342 23.4171 19.3396 23.2802 19.545 23.0748ZM21.5308 29.2374C22.9002 29.1689 23.8589 29.1689 24.8175 29.1004C25.4338 29.032 26.1185 28.895 26.7348 28.7581C27.0771 28.6896 27.1456 28.4842 27.1456 28.1418C27.351 27.0462 26.9402 26.293 25.8446 25.8822C25.7077 25.8137 25.5707 25.7452 25.5022 25.6768C24.6806 25.129 23.8589 24.5127 23.0372 23.9649C22.9687 23.8964 22.7633 23.8965 22.6263 23.8965C22.0786 23.8965 21.5992 23.8965 21.0515 23.8965C20.9145 23.8965 20.7091 23.8964 20.6406 23.9649C19.7505 24.9236 18.5864 25.4713 17.4908 26.0876C16.8061 26.4984 16.4637 26.9093 16.6007 27.731C16.6691 28.6896 16.6691 28.6896 17.5593 28.9635C17.6278 28.9635 17.6278 28.9635 17.6962 28.9635C19.2027 29.032 20.5721 29.1689 21.5308 29.2374ZM19.682 19.788C19.682 19.9935 19.682 20.1989 19.682 20.4043C19.7505 21.5683 20.7091 22.39 21.8047 22.4585C22.9002 22.527 23.9273 21.7738 24.0643 20.6782C24.1328 20.0619 24.1328 19.4457 23.9958 18.8979C23.6535 17.5284 22.0101 16.8437 20.7776 17.5284C20.0243 18.0077 19.682 18.8294 19.682 19.788Z" fill="white"/>
<path d="M22.6958 4.44966C22.2164 4.44966 21.7371 4.44966 21.2578 4.44966C21.2578 3.97035 21.2578 3.49103 21.2578 3.01172C21.7371 3.01172 22.2164 3.01172 22.6958 3.01172C22.6958 3.49103 22.6958 3.97035 22.6958 4.44966Z" fill="white"/>
<path d="M4.68599 14.9267C4.20668 14.9267 3.72736 14.9267 3.24805 14.9267C3.24805 14.4474 3.24805 13.9681 3.24805 13.4888C3.72736 13.4888 4.20668 13.4888 4.68599 13.4888C4.68599 13.9681 4.68599 14.4474 4.68599 14.9267Z" fill="white"/>
<path d="M40.6352 13.4888C40.6352 13.9681 40.6352 14.4474 40.6352 14.9267C40.1559 14.9267 39.6766 14.9267 39.1973 14.9267C39.1973 14.4474 39.1973 13.9681 39.1973 13.4888C39.6766 13.4888 40.1559 13.4888 40.6352 13.4888Z" fill="white"/>
<path d="M4.68599 34.4417C4.20668 34.4417 3.72736 34.4417 3.24805 34.4417C3.24805 33.9624 3.24805 33.4831 3.24805 33.0038C3.72736 33.0038 4.20668 33.0038 4.68599 33.0038C4.68599 33.4831 4.68599 33.9624 4.68599 34.4417Z" fill="white"/>
<path d="M40.6352 33.0038C40.6352 33.4831 40.6352 33.9624 40.6352 34.4417C40.1559 34.4417 39.6766 34.4417 39.1973 34.4417C39.1973 33.9624 39.1973 33.4831 39.1973 33.0038C39.6766 33.0038 40.1559 33.0038 40.6352 33.0038Z" fill="white"/>
<path d="M22.6958 43.4807C22.6958 43.96 22.6958 44.4393 22.6958 44.9187C22.2164 44.9187 21.7371 44.9187 21.2578 44.9187C21.2578 44.4393 21.2578 43.96 21.2578 43.4807C21.7371 43.4807 22.148 43.4807 22.6958 43.4807Z" fill="white"/>
</svg>

<svg width="44" height="48" fill="none" xmlns="http://www.w3.org/2000/svg"><path d="M21.463 47.931c-.89-.205-1.712-.479-2.26-1.232-.342-.48-.616-1.096-.89-1.643-.137-.274-.205-.411-.48-.48a20.344 20.344 0 0 1-5.203-1.78 20.34 20.34 0 0 1-6.71-5.34c-.206-.275-.411-.275-.685-.206-1.712.616-3.561-.137-4.451-1.712-.89-1.644-.548-3.63.958-4.725.274-.205.343-.41.206-.753-1.233-4.04-1.233-8.148 0-12.188.068-.274.068-.48-.206-.685C.236 16.09-.175 14.106.715 12.462c.89-1.643 2.74-2.328 4.52-1.712.342.137.479 0 .684-.205a20.34 20.34 0 0 1 6.71-5.341c1.576-.822 3.287-1.37 5-1.712.41-.068.684-.205.821-.753C18.724 1.096 20.299 0 22.01 0c1.712 0 3.219 1.233 3.561 2.876.069.41.274.548.617.616a19.63 19.63 0 0 1 7.669 3.287c1.575 1.095 2.944 2.328 4.108 3.766.205.274.41.342.753.205 1.644-.616 3.56.137 4.451 1.644.89 1.643.548 3.629-.89 4.724-.274.206-.343.411-.274.754 1.232 4.04 1.232 8.148 0 12.188-.069.274-.069.48.205.685 1.37 1.027 1.85 2.944 1.164 4.519-.753 1.643-2.533 2.602-4.177 2.123-.753-.206-1.095 0-1.574.547-3.013 3.424-6.848 5.615-11.298 6.574-.411.068-.685.274-.754.753-.41 1.438-1.37 2.26-2.739 2.67-.137 0-.205.069-.342.069-.41-.069-.685-.069-1.027-.069Zm.48-34.442c-5.753 0-10.477 4.725-10.477 10.477 0 5.752 4.724 10.476 10.476 10.476 5.752 0 10.477-4.724 10.477-10.476 0-5.752-4.725-10.477-10.477-10.477Zm-3.561-8.627c-4.725.89-8.56 3.218-11.572 6.915.821 1.028 1.095 2.123.821 3.356 0 .137.137.274.206.342l2.67 1.438c.41.205.822.48 1.233.685 2.465-3.63 5.82-5.615 10.202-5.615 4.383 0 7.67 2.054 10.134 5.615 1.164-.616 2.26-1.233 3.355-1.85.548-.273.89-.547.754-1.3-.206-1.027.205-1.917.89-2.739-3.013-3.698-6.848-6.026-11.572-6.916-.48 1.438-1.438 2.26-2.876 2.602v3.013H21.12V7.395c-1.301-.342-2.26-1.164-2.74-2.533ZM6.81 36.154c3.08 3.698 6.847 6.026 11.572 6.916.479-1.37 1.438-2.26 2.875-2.602v-3.013h1.507v3.013c1.438.342 2.328 1.232 2.807 2.602 4.725-.959 8.56-3.218 11.572-6.916-.89-1.37-.958-1.78-.821-3.355a.523.523 0 0 0-.137-.343c-1.301-.753-2.67-1.438-4.04-2.19-2.465 3.628-5.82 5.614-10.203 5.614-4.382 0-7.737-2.054-10.202-5.615-1.37.753-2.67 1.438-3.972 2.191-.068.069-.205.206-.137.343.274 1.3-.068 2.396-.821 3.355Zm4.245-7.19c-1.438-3.355-1.438-6.71 0-10.065-1.438-.754-2.808-1.575-4.245-2.328-.96 1.027-2.055 1.438-3.424 1.3-1.233 4.04-1.233 8.012 0 12.052 1.37-.137 2.465.342 3.424 1.301 1.437-.685 2.807-1.438 4.245-2.26Zm26.02 2.328c.89-.89 1.917-1.438 3.218-1.369.069 0 .274-.205.343-.274.684-2.191.958-4.382.821-6.71-.068-1.712-.342-3.355-.959-4.999-1.3.137-2.396-.274-3.286-1.164-.069-.068-.274-.068-.411 0-.616.342-1.233.685-1.78.959-.685.41-1.438.753-2.123 1.164 1.438 3.355 1.438 6.71 0 10.065a81.771 81.771 0 0 0 4.177 2.328ZM21.942 5.957c1.233 0 2.26-1.027 2.26-2.191 0-1.232-.959-2.26-2.191-2.26a2.28 2.28 0 0 0-2.26 2.26c-.068 1.164.959 2.191 2.191 2.191ZM6.193 14.242a2.28 2.28 0 0 0-2.26-2.26 2.28 2.28 0 0 0-2.259 2.26c0 1.233 1.027 2.192 2.26 2.192 1.3 0 2.26-1.027 2.26-2.192Zm35.949 0c0-1.232-1.027-2.26-2.191-2.26-1.233 0-2.26.96-2.26 2.192a2.28 2.28 0 0 0 2.26 2.26c1.164.068 2.19-.959 2.19-2.192ZM6.193 33.69a2.28 2.28 0 0 0-2.26-2.26 2.28 2.28 0 0 0-2.259 2.26 2.28 2.28 0 0 0 2.26 2.26c1.3 0 2.26-1.027 2.26-2.26Zm35.949 0c0-1.233-1.027-2.26-2.191-2.26-1.233 0-2.26.959-2.26 2.192a2.28 2.28 0 0 0 2.26 2.26c1.164.068 2.19-.96 2.19-2.192Zm-20.2 8.285c-1.232 0-2.26 1.027-2.26 2.192a2.28 2.28 0 0 0 2.26 2.26 2.28 2.28 0 0 0 2.26-2.26c0-1.233-1.027-2.192-2.26-2.192Z" fill="#fff"/><path d="M19.545 23.075c-1.438-1.301-1.643-2.876-1.233-4.588.411-1.78 2.192-2.944 3.903-2.807 1.986.205 3.287 1.712 3.424 3.697.069 1.37-.205 2.602-1.37 3.63.206.136.412.342.617.479 1.096.684 2.26 1.37 3.355 1.985.274.137.411.343.343.685v1.986c.068.89-.411 1.506-1.165 1.78-.753.274-1.574.48-2.328.548-2.465.205-4.998.274-7.463-.137-.411-.068-.822-.205-1.233-.342-.821-.343-1.3-.959-1.232-1.85v-2.053c0-.274.068-.411.274-.548 1.164-.685 2.26-1.37 3.423-2.054.274-.069.48-.206.685-.411Zm1.986 6.162c1.37-.068 2.328-.068 3.287-.137a18.763 18.763 0 0 0 1.917-.342c.342-.068.41-.274.41-.616.206-1.096-.205-1.849-1.3-2.26-.137-.068-.274-.137-.343-.205-.821-.548-1.643-1.164-2.465-1.712-.068-.069-.274-.069-.41-.069h-1.575c-.137 0-.343 0-.411.069-.89.959-2.055 1.506-3.15 2.123-.685.41-1.027.821-.89 1.643.068.959.068.959.958 1.232h.137c1.507.069 2.876.206 3.835.274Zm-1.849-9.449v.616c.069 1.164 1.027 1.986 2.123 2.055 1.095.068 2.122-.685 2.26-1.78.068-.617.068-1.233-.07-1.781-.341-1.37-1.985-2.054-3.217-1.37-.754.48-1.096 1.301-1.096 2.26ZM22.696 4.45h-1.438V3.012h1.438V4.45ZM4.686 14.927H3.248v-1.438h1.438v1.438ZM40.635 13.489v1.438h-1.438v-1.438h1.438ZM4.686 34.442H3.248v-1.438h1.438v1.438ZM40.635 33.004v1.438h-1.438v-1.438h1.438ZM22.696 43.48v1.439h-1.438V43.48h1.438Z" fill="#fff"/></svg>
